X:741
T:Capt. Palmer's
C:Walch
S:Bruce & Emmett's Drummers and Fifers Guide (1862), p. 74
M:2/4
L:1/16
Q:1/4=100
K:D
%%MIDI program 72
%%MIDI transpose 8
%%MIDI ratio 3 1
F2z2 (G4|A4) z2(^A2|B2)(^d2e2)=d2|.c2.c2 z4|e2z2 (Tf4|g6) (fe)|(dcB).A (GF).E.F|
D2D2 z4|A2F2 ({B}A^G).A.d|({B}A^G).A.d f4|(f<e)(e<^d) (f<e)e<=d|(d<c)(c<B) (B<A)A<G|A2F2 ({B}A^G).A.d|
({B}A^G).A.d f4|({f}e2ed) {d}c2(cA)|d4 z4::C4 CEDE|FE.CE c4-|c4-cF^G^A|
{c}B>^AB>c d4-|d4-dE.F.^G|{B}A>^GA>B (c4|{c}B)(^AB).d ({A}^GFG).B|A4 z4::(D3F/A/ .d2).c2|
.B2.A2.G2.F2|(E3G/B/ .e2).d2|.c2.B2.A2.G2|(F3A/d/ .f2).e2|.g2.f2(b3a)|a2g>e d>fe>c|d4 z4:|
